Icons/Line/si_Barcode_scan_alt.svg

<svg width="24" height="24" viewBox="0 0 24 24" fill="none" xmlns="http://www.w3.org/2000/svg">
<g clip-path="url(#clip0_330_449)">
<path d="M5 23H3.4C2.07452 23 1 21.9255 1 20.6V19M19 23H20.6C21.9255 23 23 21.9255 23 20.6V19M23 5V3.4C23 2.07452 21.9255 1 20.6 1H19M5 1H3.4C2.07452 1 1 2.07452 1 3.4V5" stroke="black" stroke-width="1.5" stroke-miterlimit="10" stroke-linecap="round" stroke-linejoin="round"/>
<path d="M8.4 4H5.6C4.71634 4 4 4.71634 4 5.6V8.4C4 9.28366 4.71634 10 5.6 10H8.4C9.28366 10 10 9.28366 10 8.4V5.6C10 4.71634 9.28366 4 8.4 4Z" stroke="black" stroke-width="1.5" stroke-miterlimit="10"/>
<path d="M8.4 14H5.6C4.71634 14 4 14.7163 4 15.6V18.4C4 19.2837 4.71634 20 5.6 20H8.4C9.28366 20 10 19.2837 10 18.4V15.6C10 14.7163 9.28366 14 8.4 14Z" stroke="black" stroke-width="1.5" stroke-miterlimit="10"/>
<path d="M18.4 4H15.6C14.7163 4 14 4.71634 14 5.6V8.4C14 9.28366 14.7163 10 15.6 10H18.4C19.2837 10 20 9.28366 20 8.4V5.6C20 4.71634 19.2837 4 18.4 4Z" stroke="black" stroke-width="1.5" stroke-miterlimit="10"/>
<path d="M18.4 14H15.6C14.7163 14 14 14.7163 14 15.6V18.4C14 19.2837 14.7163 20 15.6 20H18.4C19.2837 20 20 19.2837 20 18.4V15.6C20 14.7163 19.2837 14 18.4 14Z" stroke="black" stroke-width="1.5" stroke-miterlimit="10"/>
</g>
<defs>
<clipPath id="clip0_330_449">
<rect width="24" height="24" fill="white"/>
</clipPath>
</defs>
</svg>

<svg width="24" height="24" fill="none" xmlns="http://www.w3.org/2000/svg"><g clip-path="url(#a)" stroke="#000" stroke-width="1.5" stroke-miterlimit="10"><path d="M5 23H3.4A2.4 2.4 0 0 1 1 20.6V19m18 4h1.6a2.4 2.4 0 0 0 2.4-2.4V19m0-14V3.4A2.4 2.4 0 0 0 20.6 1H19M5 1H3.4A2.4 2.4 0 0 0 1 3.4V5" stroke-linecap="round" stroke-linejoin="round"/><path d="M8.4 4H5.6A1.6 1.6 0 0 0 4 5.6v2.8A1.6 1.6 0 0 0 5.6 10h2.8A1.6 1.6 0 0 0 10 8.4V5.6A1.6 1.6 0 0 0 8.4 4ZM8.4 14H5.6A1.6 1.6 0 0 0 4 15.6v2.8A1.6 1.6 0 0 0 5.6 20h2.8a1.6 1.6 0 0 0 1.6-1.6v-2.8A1.6 1.6 0 0 0 8.4 14ZM18.4 4h-2.8A1.6 1.6 0 0 0 14 5.6v2.8a1.6 1.6 0 0 0 1.6 1.6h2.8A1.6 1.6 0 0 0 20 8.4V5.6A1.6 1.6 0 0 0 18.4 4ZM18.4 14h-2.8a1.6 1.6 0 0 0-1.6 1.6v2.8a1.6 1.6 0 0 0 1.6 1.6h2.8a1.6 1.6 0 0 0 1.6-1.6v-2.8a1.6 1.6 0 0 0-1.6-1.6Z"/></g><defs><clipPath id="a"><path fill="#fff" d="M0 0h24v24H0z"/></clipPath></defs></svg>
